X: 51
T: Pollonesse #51
M: 3/4
L: 1/16
K: Dm
Q:120
GABc d4g2a2|b2bg a2af g2a2|b2bg a2af g2a2|b2bg a2af g4|
d2_e2 d2c2 B2A2|G2GB AGFE DEFG|GABc d4g2a2|b2bg a2af g2a2|
b2bg a2af g2a2|b2bg a2af g4|d2_e2 d2c2 B2A2|BcdB G4 G,4:|
[B4D4] cBAB cBAB| d2e2 f2g2 a2b2|f3e d2de d4| d2c2 c2B2 A2F2|
G2GB AGFE D4|d2dB c2cA B2Bd|cAFA G4 G,4:|
N: Jämför nr. 41

